images/logo.svg

<svg width="69" height="56" viewBox="0 0 69 56" fill="none" xmlns="http://www.w3.org/2000/svg">
<g clip-path="url(#clip0_150_14)">
<path d="M39.1605 16.87L37.8643 15.87C37.6617 15.7043 37.4026 15.626 37.1432 15.6522C36.8838 15.6784 36.6451 15.807 36.479 16.01L18.5396 36.83L18.8166 37.14L23.2594 33C23.1114 32.9398 22.9888 32.8291 22.9132 32.6871C22.8375 32.5451 22.8135 32.3807 22.8452 32.2227C22.877 32.0646 22.9625 31.9227 23.087 31.8218C23.2115 31.7208 23.367 31.6671 23.5266 31.67C23.6705 31.67 23.8106 31.7166 23.9264 31.803C24.0421 31.8894 24.1274 32.011 24.1698 32.15L30.0275 26.66C30.1172 26.587 30.229 26.5472 30.3442 26.5472C30.4594 26.5472 30.5711 26.587 30.6608 26.66L30.9577 26.88C31.0581 26.9528 31.1818 26.9849 31.3045 26.9701C31.4272 26.9553 31.54 26.8946 31.6206 26.8L39.2793 18.12C39.3607 18.0339 39.4228 17.931 39.4613 17.8184C39.4999 17.7058 39.514 17.5862 39.5028 17.4676C39.4915 17.349 39.4551 17.2343 39.396 17.1312C39.337 17.028 39.2567 16.939 39.1605 16.87Z" fill="#303030"/>
<path d="M47.5909 22.73C43.6651 25.553 39.2672 27.6364 34.6088 28.88C29.9854 30.0683 25.2544 30.7786 20.4888 31C20.5847 31.7102 20.7573 32.4077 21.0033 33.08C23.6947 35.54 43.9595 31.34 47.9175 26.48C48.7585 25.47 47.5909 22.73 47.5909 22.73ZM23.5265 33C23.3934 33 23.2633 32.9601 23.1527 32.8854C23.042 32.8107 22.9558 32.7045 22.9049 32.5802C22.8539 32.4559 22.8406 32.3192 22.8666 32.1873C22.8925 32.0554 22.9566 31.9342 23.0507 31.8391C23.1448 31.744 23.2647 31.6793 23.3952 31.653C23.5258 31.6268 23.661 31.6403 23.784 31.6917C23.9069 31.7432 24.012 31.8304 24.086 31.9422C24.1599 32.054 24.1994 32.1855 24.1994 32.32C24.2007 32.4097 24.1842 32.4987 24.1509 32.5818C24.1175 32.6649 24.068 32.7404 24.0053 32.8038C23.9425 32.8672 23.8678 32.9173 23.7856 32.951C23.7033 32.9847 23.6152 33.0013 23.5265 33Z" fill="#303030"/>
<path d="M4.38005 21.2899L4.53837 20.5999L7.11105 21.1899C7.3233 21.5861 7.45453 22.0214 7.49695 22.4699C7.54606 22.945 7.51595 23.425 7.4079 23.8899C7.27981 24.5352 6.98638 25.1352 6.55693 25.6299C6.14836 26.097 5.62154 26.4428 5.03312 26.6299C4.42665 26.8189 3.78162 26.8431 3.16298 26.6999C2.54299 26.5646 1.9715 26.2603 1.51053 25.8199C1.05662 25.3969 0.730679 24.8526 0.570515 24.2499C0.392836 23.5954 0.392836 22.9045 0.570515 22.2499C0.676863 21.76 0.867784 21.2929 1.13452 20.8699C1.38698 20.4853 1.72609 20.1665 2.12402 19.9399L2.48023 20.4899C2.13916 20.7016 1.84638 20.9839 1.62124 21.3183C1.39609 21.6527 1.24369 22.0316 1.1741 22.4299C1.05139 22.9473 1.06161 23.4877 1.20379 23.9999C1.33675 24.4863 1.60048 24.9259 1.9657 25.2699C2.34109 25.6367 2.81075 25.8896 3.3213 25.9999C3.81637 26.1404 4.34015 26.1404 4.83522 25.9999C5.30947 25.8417 5.73543 25.5628 6.07208 25.1899C6.41805 24.7873 6.65647 24.3019 6.76473 23.7799C6.92753 23.1468 6.88593 22.4776 6.64599 21.8699L4.38005 21.2899Z" fill="#303030"/>
<path d="M9.9804 15.0001L7.67489 18.1101L8.66438 19.9001L8.20921 20.5201L4.5481 13.7701L4.97358 13.1801L12.4244 14.8001L11.9594 15.4201L9.9804 15.0001ZM9.32734 14.8401L5.36937 13.9401L7.34835 17.5301L9.32734 14.8401Z" fill="#303030"/>
<path d="M9.32739 8.54998L9.92109 8.09998L13.691 13.2L16.798 10.85L17.1741 11.36L13.4833 14.15L9.32739 8.54998Z" fill="#303030"/>
<path d="M15.561 4.37996L16.224 4.07996L18.8362 9.85996L22.3687 8.23996L22.626 8.81996L18.4306 10.75L15.561 4.37996Z" fill="#303030"/>
<path d="M28.6025 6.68003L28.751 7.31003L23.9816 8.44003L22.3984 1.62003L27.0293 0.530029L27.1678 1.15003L23.2098 2.08003L23.7738 4.50003L27.2568 3.67003L27.4053 4.29003L23.9124 5.11003L24.5061 7.64003L28.6025 6.68003Z" fill="#303030"/>
<path d="M35.4005 6.92997L33.748 4.72997C33.5635 4.74029 33.3785 4.74029 33.1939 4.72997L31.3337 4.78997L31.4029 7.00997H30.6707L30.4431 0.00996866L33.0752 -3.1339e-05C33.8193 -0.0694894 34.5635 0.132721 35.1729 0.569969C35.4297 0.778962 35.6362 1.04418 35.7767 1.3456C35.9173 1.64702 35.9882 1.97678 35.9843 2.30997C36.0131 2.80416 35.8849 3.29473 35.6182 3.70997C35.3338 4.10853 34.9321 4.40603 34.4703 4.55997L36.202 6.89997L35.4005 6.92997ZM34.7078 3.63997C34.8857 3.47531 35.0237 3.27154 35.1112 3.04439C35.1987 2.81725 35.2333 2.57281 35.2125 2.32997C35.2176 2.08584 35.1677 1.84374 35.0665 1.62198C34.9654 1.40022 34.8156 1.20461 34.6287 1.04997C34.1726 0.737448 33.6242 0.592707 33.0752 0.639969L31.1951 0.709969L31.3139 4.20997L33.1543 4.14997C33.7155 4.17096 34.2659 3.99026 34.7078 3.63997Z" fill="#303030"/>
<path d="M40.6347 5.07L40.2785 7.46L39.5562 7.35L39.9223 5L37.874 0L38.6458 0.12L40.3972 4.38L43.3657 0.85L44.0583 1L40.6347 5.07Z" fill="#303030"/>
<path d="M50.4209 4.65005L51.2818 5.78005L50.9058 6.08005L50.0449 4.92005L49.5007 6.23005L49.0851 6.05005L49.6392 4.74005L48.2144 4.93005V4.45005L49.6194 4.29005L48.7487 3.16005L49.1346 2.86005L49.8965 4.00005L50.4308 2.68005L50.8563 2.86005L50.3517 4.20005L51.7765 4.00005V4.49005L50.4209 4.65005Z" fill="#303030"/>
<path d="M53.7258 12.71C53.4921 12.346 53.3464 11.9315 53.3003 11.5L53.8841 11.24C53.9279 11.6364 54.0562 12.0185 54.2601 12.36C54.4811 12.743 54.7695 13.0819 55.1111 13.36C55.4638 13.7013 55.9138 13.9217 56.3974 13.99C56.5721 14.0064 56.7482 13.9794 56.9103 13.9115C57.0723 13.8435 57.2156 13.7366 57.3275 13.6C57.4096 13.5085 57.4721 13.4009 57.5113 13.284C57.5505 13.167 57.5654 13.0431 57.5551 12.92C57.5224 12.6763 57.4416 12.4417 57.3176 12.23C57.1317 11.9231 56.9302 11.626 56.714 11.34C56.4506 10.9912 56.2125 10.6236 56.0016 10.24C55.8404 9.95296 55.752 9.63003 55.7443 9.30004C55.7436 8.92946 55.8815 8.5723 56.1302 8.30004C56.3459 8.03617 56.6304 7.83869 56.9515 7.73004C57.3103 7.62531 57.6911 7.62531 58.0499 7.73004C58.5121 7.88282 58.9394 8.12763 59.3065 8.45004C59.6111 8.70611 59.8807 9.00205 60.108 9.33004C60.3182 9.6342 60.4755 9.97239 60.5731 10.33L60.009 10.63C59.9107 10.2967 59.764 9.97991 59.5737 9.69004C59.3841 9.43118 59.1612 9.19913 58.9107 9.00004C58.5632 8.66028 58.1146 8.44587 57.6343 8.39004C57.4577 8.37512 57.2803 8.40478 57.118 8.47635C56.9556 8.54792 56.8134 8.65915 56.7041 8.80004C56.62 8.89013 56.5561 8.99753 56.5168 9.11489C56.4775 9.23226 56.4638 9.35681 56.4766 9.48004C56.4997 9.73221 56.5811 9.97538 56.714 10.19C56.8526 10.42 57.0505 10.72 57.3176 11.08C57.5825 11.4208 57.8207 11.7819 58.0301 12.16C58.1947 12.4462 58.2865 12.7692 58.2972 13.1C58.2979 13.4706 58.1601 13.8278 57.9113 14.1C57.6949 14.3675 57.4061 14.5656 57.0801 14.67C56.722 14.7793 56.3399 14.7793 55.9818 14.67C55.5164 14.5177 55.0858 14.2729 54.7153 13.95C54.3158 13.5987 53.9809 13.179 53.7258 12.71Z" fill="#303030"/>
<path d="M63.6799 14.17L62.2847 12.17L62.7993 11.8L66.0151 16.44L65.5006 16.81L64.1054 14.81L58.9402 18.46L58.5247 17.85L63.6799 14.17Z" fill="#303030"/>
<path d="M61.4635 22.39C61.6402 21.7856 61.9834 21.2445 62.453 20.83C62.9124 20.4141 63.4721 20.1279 64.0758 20C64.6911 19.8572 65.3329 19.8814 65.936 20.07C66.5182 20.2645 67.04 20.6092 67.4499 21.07C67.8762 21.5656 68.1662 22.1656 68.291 22.81C68.4549 23.4426 68.4549 24.1073 68.291 24.74C68.1095 25.3421 67.7671 25.8819 67.3015 26.3C66.8294 26.727 66.2559 27.0233 65.6369 27.16C65.0179 27.2967 64.3744 27.2691 63.769 27.08C63.1824 26.8949 62.6583 26.5487 62.2551 26.08C61.8308 25.587 61.5409 24.9907 61.414 24.35C61.2629 23.7033 61.2799 23.028 61.4635 22.39ZM62.7597 25.57C63.0901 25.9502 63.5182 26.2306 63.9966 26.38C64.4897 26.5245 65.0108 26.5417 65.5121 26.4298C66.0135 26.318 66.479 26.0808 66.8661 25.74C67.2313 25.4004 67.5011 24.9691 67.6478 24.49C67.7858 23.9841 67.7993 23.4517 67.6872 22.9393C67.5751 22.4269 67.3408 21.95 67.0047 21.55C66.6598 21.1679 66.2185 20.8879 65.7282 20.74C65.2289 20.606 64.7037 20.606 64.2044 20.74C63.7006 20.8377 63.2342 21.0768 62.8587 21.43C62.4901 21.7708 62.22 22.2062 62.077 22.69C61.9427 23.1977 61.9427 23.7322 62.077 24.24C62.1854 24.7361 62.4208 25.1947 62.7597 25.57Z" fill="#303030"/>
<path d="M60.7114 34L63.2742 33C63.2742 32.82 63.3336 32.64 63.3831 32.45L63.8679 30.64L61.7702 30.09L61.9582 29.38L68.6472 31.19L67.9743 33.72C67.8227 34.4582 67.4158 35.1177 66.8265 35.58C66.5557 35.7701 66.2451 35.8942 65.919 35.9428C65.5928 35.9914 65.26 35.963 64.9465 35.86C64.469 35.7553 64.0411 35.4892 63.7334 35.1056C63.4258 34.722 63.2568 34.2438 63.2544 33.75L60.5234 34.75L60.7114 34ZM64.0262 34.28C64.1421 34.4925 64.2994 34.6792 64.4885 34.8287C64.6776 34.9782 64.8947 35.0876 65.1267 35.1502C65.3587 35.2128 65.6008 35.2273 65.8385 35.1929C66.0762 35.1585 66.3046 35.0759 66.5099 34.95C66.9466 34.5955 67.2447 34.0958 67.3509 33.54L67.8259 31.74L64.4715 30.83L63.9965 32.63C63.814 33.1664 63.8245 33.7507 64.0262 34.28Z" fill="#303030"/>
<path d="M57.1592 40.44L56.6545 40.05L59.623 36.1L65.1444 40.33L62.2748 44.16L61.7702 43.77L64.1945 40.54L62.2155 39.03L60.0485 41.92L59.5537 41.54L61.7702 38.65L59.722 37.08L57.1592 40.44Z" fill="#303030"/>
<path d="M54.8439 48.41L53.429 48.49V48.01L54.8439 48L54.082 46.81L54.4679 46.56L55.2199 47.76L55.8334 46.42L56.2589 46.65L55.586 47.91L57.001 47.83V48.32H55.5663L56.3282 49.51L55.9423 49.76L55.1902 48.56L54.5372 49.86L54.1216 49.62L54.8439 48.41Z" fill="#303030"/>
<path d="M41.9804 47.61L43.1777 48.28C43.3784 47.8904 43.6586 47.5481 43.9997 47.2757C44.3408 47.0034 44.7351 46.8072 45.1567 46.7C45.5499 46.5761 45.9635 46.5319 46.3737 46.57C46.7297 46.5976 47.0716 46.722 47.3632 46.93C47.6269 47.1309 47.8209 47.4109 47.9174 47.73C48.0366 48.1248 48.0156 48.5493 47.858 48.93C47.6097 49.4474 47.275 49.9176 46.8685 50.32C47.1947 50.4972 47.4973 50.7156 47.7689 50.97C47.9555 51.1649 48.0944 51.4012 48.1746 51.66C48.2253 51.8618 48.2285 52.0728 48.1838 52.276C48.1391 52.4792 48.0478 52.669 47.9174 52.83C47.6532 53.2147 47.2591 53.4885 46.8091 53.6C46.414 53.7523 45.9773 53.7523 45.5822 53.6C45.4065 53.5237 45.2507 53.4072 45.1271 53.2597C45.0035 53.1122 44.9154 52.9377 44.8697 52.75C44.766 52.4199 44.7908 52.0623 44.939 51.75C45.1661 51.2954 45.4634 50.8802 45.8196 50.52L43.435 49.18C43.344 49.651 43.324 50.1331 43.3756 50.61H42.772C42.7314 50.0227 42.7985 49.4328 42.9699 48.87L41.7231 48.17L41.9804 47.61ZM43.7021 48.61L46.3243 50.08C46.6679 49.7484 46.9524 49.3593 47.1653 48.93C47.2741 48.6401 47.2741 48.32 47.1653 48.03C47.1205 47.8568 47.0337 47.6975 46.9128 47.5666C46.7919 47.4357 46.6406 47.3372 46.4727 47.28C46.0619 47.1398 45.6169 47.1398 45.2061 47.28C44.8705 47.3695 44.5583 47.5323 44.2916 47.7569C44.0249 47.9815 43.8102 48.2625 43.6625 48.58L43.7021 48.61ZM47.4226 52.61C47.4873 52.4995 47.5278 52.3763 47.5414 52.2487C47.5551 52.1211 47.5416 51.9919 47.5018 51.87C47.4411 51.6726 47.3322 51.4937 47.1851 51.35C46.9333 51.1353 46.6577 50.9508 46.3639 50.8C46.0639 51.0998 45.8013 51.4357 45.5822 51.8C45.4625 52.0272 45.4342 52.2923 45.503 52.54C45.5344 52.6545 45.5894 52.7609 45.6645 52.8522C45.7395 52.9436 45.8329 53.0178 45.9384 53.07C46.1903 53.166 46.4682 53.166 46.7201 53.07C46.9891 52.9975 47.224 52.831 47.383 52.6L47.4226 52.61Z" fill="#303030"/>
<path d="M29.9187 55.3199L30.0572 48.3199H30.7598L30.6509 53.9199L33.4611 49.2599H33.8074L36.4394 53.9999L36.5384 48.4299H37.2409L37.1123 55.4299H36.5087L33.5996 50.1999L30.5223 55.3299L29.9187 55.3199Z" fill="#303030"/>
<path d="M26.4751 48C26.9276 48.4358 27.2514 48.9901 27.4104 49.601C27.5694 50.212 27.5573 50.8556 27.3756 51.46C27.213 52.0789 26.8882 52.642 26.4355 53.09C25.9956 53.527 25.444 53.8317 24.8425 53.97C24.2079 54.1147 23.5474 54.094 22.9229 53.91C22.3005 53.7564 21.7279 53.4429 21.2605 53C20.8148 52.5697 20.4962 52.0227 20.3403 51.42C20.1881 50.7969 20.1993 50.1446 20.3729 49.5273C20.5464 48.91 20.8762 48.3491 21.3298 47.9C21.7619 47.4641 22.3018 47.1533 22.8932 47C23.5244 46.8557 24.1817 46.8763 24.8029 47.06C25.4317 47.221 26.0081 47.545 26.4751 48ZM23.101 47.65C22.6169 47.7639 22.1745 48.0134 21.8245 48.37C21.46 48.7369 21.2002 49.1963 21.0725 49.7C20.9345 50.2004 20.9345 50.7295 21.0725 51.23C21.1892 51.7169 21.4396 52.1606 21.7948 52.51C22.1674 52.8782 22.6274 53.1433 23.1306 53.28C23.6339 53.4095 24.1612 53.4095 24.6644 53.28C25.1488 53.1596 25.5927 52.9111 25.9507 52.56C26.3133 52.1916 26.5727 51.7327 26.7027 51.23C26.841 50.7262 26.841 50.1938 26.7027 49.69C26.5761 49.2049 26.3232 48.7629 25.9705 48.41C25.596 48.0413 25.1317 47.7791 24.6248 47.65C24.1262 47.5107 23.5996 47.5107 23.101 47.65Z" fill="#303030"/>
<path d="M15.6105 43L15.8777 45.75C16.0474 45.8233 16.2126 45.9068 16.3724 46L17.9853 46.94L19.0738 45L19.7169 45.37L16.2537 51.4L13.9977 50.09C13.3308 49.7515 12.8048 49.1844 12.5134 48.49C12.4059 48.1772 12.3696 47.8439 12.4073 47.5149C12.445 47.1859 12.5557 46.8698 12.7311 46.59C12.9611 46.1518 13.3257 45.8008 13.7701 45.59C14.2214 45.4011 14.7205 45.3626 15.1949 45.48L14.908 42.54L15.6105 43ZM14.4825 46.16C14.2501 46.219 14.0319 46.3247 13.8408 46.4708C13.6498 46.617 13.4899 46.8006 13.3707 47.0107C13.2516 47.2207 13.1756 47.4529 13.1473 47.6934C13.119 47.9338 13.139 48.1776 13.2061 48.41C13.438 48.9276 13.8401 49.3481 14.344 49.6L15.9371 50.53L17.6687 47.53L16.0756 46.6C15.6177 46.2533 15.0539 46.0799 14.4825 46.11V46.16Z" fill="#303030"/>
<path d="M9.75283 38.31L10.1981 37.86L13.6118 41.41L8.66439 46.29L5.36938 42.85L5.82455 42.4L8.62481 45.31L10.3168 43.58L7.8629 41L8.33786 40.54L10.8413 43.14L12.6817 41.33L9.75283 38.31Z" fill="#303030"/>
<path d="M2.40084 34.38L2.63832 33L3.10338 33.07L2.83622 34.49L4.15224 34L4.31056 34.44L2.97475 34.9L4.07308 35.84L3.75644 36.2L2.69769 35.2L2.45032 36.62L1.97536 36.53L2.25242 35.11L0.9265 35.59L0.778076 35.2L2.10399 34.73L1.00566 33.8L1.33219 33.44L2.40084 34.38Z" fill="#303030"/>
</g>
<defs>
<clipPath id="clip0_150_14">
<rect width="68.2056" height="55.46" fill="white" transform="translate(0.421875)"/>
</clipPath>
</defs>
</svg>

<svg xmlns="http://www.w3.org/2000/svg" width="69" height="56" fill="none"><g fill="#303030" clip-path="url(#a)"><path d="m39.16 16.87-1.296-1a.983.983 0 0 0-1.385.14l-17.94 20.82.278.31L23.259 33a.697.697 0 0 1-.172-1.178.678.678 0 0 1 .44-.152.668.668 0 0 1 .643.48l5.857-5.49a.502.502 0 0 1 .634 0l.297.22a.49.49 0 0 0 .663-.08l7.658-8.68a.83.83 0 0 0 .224-.652.836.836 0 0 0-.343-.598Z"/><path d="M47.59 22.73a39.836 39.836 0 0 1-12.981 6.15A69.718 69.718 0 0 1 20.489 31c.096.71.268 1.408.514 2.08 2.692 2.46 22.956-1.74 26.914-6.6.841-1.01-.326-3.75-.326-3.75ZM23.527 33a.668.668 0 0 1-.621-.42.686.686 0 0 1 .146-.74.671.671 0 0 1 1.148.48.677.677 0 0 1-.194.484.664.664 0 0 1-.479.196ZM4.38 21.29l.158-.69 2.573.59c.212.396.344.831.386 1.28.05.475.019.955-.09 1.42a3.775 3.775 0 0 1-.85 1.74 3.39 3.39 0 0 1-1.524 1 3.574 3.574 0 0 1-1.87.07 3.46 3.46 0 0 1-1.652-.88 3.306 3.306 0 0 1-.94-1.57 3.819 3.819 0 0 1 0-2c.106-.49.297-.957.564-1.38.252-.385.591-.704.989-.93l.356.55a2.844 2.844 0 0 0-.859.828 2.877 2.877 0 0 0-.447 1.112 3.152 3.152 0 0 0 .03 1.57c.133.486.396.926.762 1.27.375.367.845.62 1.355.73.495.14 1.02.14 1.514 0 .474-.158.9-.437 1.237-.81.346-.403.584-.888.693-1.41a3.1 3.1 0 0 0-.119-1.91l-2.266-.58ZM9.98 15l-2.305 3.11.99 1.79-.456.62-3.66-6.75.425-.59 7.45 1.62-.465.62L9.98 15Zm-.653-.16-3.958-.9 1.98 3.59 1.978-2.69ZM9.327 8.55l.594-.45 3.77 5.1 3.107-2.35.376.51-3.69 2.79-4.157-5.6ZM15.561 4.38l.663-.3 2.612 5.78 3.533-1.62.257.58-4.195 1.93-2.87-6.37ZM28.602 6.68l.149.63-4.77 1.13-1.583-6.82L27.03.53l.139.62-3.958.93.564 2.42 3.483-.83.148.62-3.493.82.594 2.53 4.096-.96ZM35.4 6.93l-1.652-2.2c-.184.01-.37.01-.554 0l-1.86.06.069 2.22h-.732l-.228-7L33.075 0a3.102 3.102 0 0 1 2.098.57 2.22 2.22 0 0 1 .811 1.74c.03.494-.1.985-.366 1.4a2.307 2.307 0 0 1-1.148.85l1.732 2.34-.801.03Zm-.692-3.29a1.59 1.59 0 0 0 .505-1.31 1.624 1.624 0 0 0-.584-1.28 2.385 2.385 0 0 0-1.554-.41l-1.88.07.119 3.5 1.84-.06a2.358 2.358 0 0 0 1.554-.51ZM40.635 5.07l-.356 2.39-.723-.11.366-2.35-2.048-5 .772.12 1.751 4.26L43.366.85l.692.15-3.423 4.07ZM50.42 4.65l.862 1.13-.376.3-.861-1.16-.544 1.31-.416-.18.554-1.31-1.425.19v-.48l1.405-.16-.87-1.13.386-.3.762 1.14.534-1.32.425.18-.504 1.34 1.425-.2v.49l-1.356.16ZM53.726 12.71a2.788 2.788 0 0 1-.426-1.21l.584-.26c.044.396.172.778.376 1.12.221.383.51.722.851 1 .353.341.803.562 1.286.63a1.069 1.069 0 0 0 .93-.39.903.903 0 0 0 .228-.68 1.853 1.853 0 0 0-.237-.69 10.48 10.48 0 0 0-.604-.89 9.102 9.102 0 0 1-.712-1.1 2.016 2.016 0 0 1-.258-.94c0-.37.138-.728.386-1 .216-.264.5-.461.822-.57a1.96 1.96 0 0 1 1.098 0c.462.153.89.398 1.257.72.304.256.574.552.801.88.21.304.367.642.465 1l-.564.3a3.535 3.535 0 0 0-.435-.94A3.593 3.593 0 0 0 58.91 9a2.187 2.187 0 0 0-1.277-.61 1.058 1.058 0 0 0-.93.41.863.863 0 0 0-.227.68c.023.252.104.495.237.71.139.23.337.53.604.89.265.34.503.702.712 1.08.165.286.256.61.267.94 0 .37-.137.728-.386 1a1.76 1.76 0 0 1-.83.57c-.359.11-.741.11-1.1 0a3.66 3.66 0 0 1-1.266-.72 4.538 4.538 0 0 1-.99-1.24ZM63.68 14.17l-1.395-2 .514-.37 3.216 4.64-.514.37-1.396-2-5.165 3.65-.415-.61 5.155-3.68ZM61.464 22.39c.176-.604.52-1.146.989-1.56a3.498 3.498 0 0 1 1.623-.83 3.545 3.545 0 0 1 1.86.07 3.52 3.52 0 0 1 1.514 1c.426.496.716 1.096.841 1.74a3.85 3.85 0 0 1 0 1.93 3.424 3.424 0 0 1-.99 1.56 3.634 3.634 0 0 1-3.533.78 3.312 3.312 0 0 1-1.513-1 3.777 3.777 0 0 1-.841-1.73 3.89 3.89 0 0 1 .05-1.96Zm1.296 3.18c.33.38.758.66 1.237.81a3.036 3.036 0 0 0 2.87-.64c.364-.34.634-.77.78-1.25a3.253 3.253 0 0 0-.642-2.94 2.816 2.816 0 0 0-1.277-.81 2.938 2.938 0 0 0-1.524 0 2.72 2.72 0 0 0-1.345.69c-.369.34-.639.776-.782 1.26a3.032 3.032 0 0 0 0 1.55c.108.496.344.955.683 1.33ZM60.711 34l2.563-1c0-.18.06-.36.11-.55l.484-1.81-2.098-.55.188-.71 6.69 1.81-.674 2.53a3.175 3.175 0 0 1-1.148 1.86 2.124 2.124 0 0 1-1.88.28 2.145 2.145 0 0 1-1.213-.754 2.184 2.184 0 0 1-.479-1.356l-2.73 1 .187-.75Zm3.315.28a1.795 1.795 0 0 0 1.1.87 1.763 1.763 0 0 0 1.384-.2c.437-.355.735-.854.84-1.41l.476-1.8-3.354-.91-.475 1.8a2.434 2.434 0 0 0 .03 1.65ZM57.16 40.44l-.505-.39 2.968-3.95 5.521 4.23-2.87 3.83-.504-.39 2.425-3.23-1.98-1.51-2.167 2.89-.494-.38 2.216-2.89-2.048-1.57-2.563 3.36ZM54.844 48.41l-1.415.08v-.48l1.415-.01-.762-1.19.386-.25.752 1.2.613-1.34.426.23-.673 1.26 1.415-.08v.49h-1.435l.762 1.19-.386.25-.752-1.2-.653 1.3-.415-.24.722-1.21ZM41.98 47.61l1.198.67c.2-.39.48-.732.822-1.004a3.065 3.065 0 0 1 1.157-.576 3.096 3.096 0 0 1 1.217-.13c.356.028.698.152.99.36.263.2.457.48.553.8.12.395.099.82-.059 1.2a4.999 4.999 0 0 1-.99 1.39c.327.177.63.396.9.65.188.195.326.431.407.69a1.344 1.344 0 0 1-.258 1.17 1.9 1.9 0 0 1-1.108.77 1.704 1.704 0 0 1-1.227 0 1.237 1.237 0 0 1-.712-.85 1.374 1.374 0 0 1 .069-1 4.8 4.8 0 0 1 .88-1.23l-2.384-1.34a4.811 4.811 0 0 0-.06 1.43h-.603a4.83 4.83 0 0 1 .198-1.74l-1.247-.7.257-.56Zm1.722 1 2.622 1.47c.344-.332.628-.72.841-1.15.11-.29.11-.61 0-.9a1.083 1.083 0 0 0-.692-.75 1.96 1.96 0 0 0-1.267 0c-.336.09-.648.252-.914.477a2.398 2.398 0 0 0-.63.823l.04.03Zm3.72 4a.905.905 0 0 0 .08-.74 1.234 1.234 0 0 0-.317-.52 4.273 4.273 0 0 0-.821-.55c-.3.3-.563.636-.782 1a1.01 1.01 0 0 0-.079.74.842.842 0 0 0 .435.53c.252.096.53.096.782 0 .27-.072.504-.239.663-.47l.04.01ZM29.919 55.32l.138-7h.703l-.11 5.6 2.811-4.66h.346L36.44 54l.1-5.57h.702l-.129 7h-.603l-2.91-5.23-3.077 5.13-.603-.01ZM26.475 48c.453.436.776.99.935 1.601a3.446 3.446 0 0 1-.034 1.859 3.569 3.569 0 0 1-.94 1.63c-.44.437-.992.742-1.593.88a3.8 3.8 0 0 1-1.92-.06A3.71 3.71 0 0 1 21.26 53a3.368 3.368 0 0 1-.92-1.58 3.727 3.727 0 0 1 .032-1.893 3.697 3.697 0 0 1 .957-1.627 3.405 3.405 0 0 1 1.563-.9 3.77 3.77 0 0 1 1.91.06 3.718 3.718 0 0 1 1.672.94Zm-3.374-.35a2.634 2.634 0 0 0-1.276.72 2.897 2.897 0 0 0-.752 1.33c-.139.5-.139 1.03 0 1.53.116.487.367.93.722 1.28.372.368.832.633 1.336.77.503.13 1.03.13 1.533 0 .485-.12.929-.369 1.287-.72.362-.368.622-.827.752-1.33a2.91 2.91 0 0 0 0-1.54 2.817 2.817 0 0 0-.732-1.28 2.96 2.96 0 0 0-1.346-.76 2.83 2.83 0 0 0-1.524 0ZM15.61 43l.268 2.75c.17.073.335.157.494.25l1.613.94L19.074 45l.643.37-3.463 6.03-2.256-1.31a3.166 3.166 0 0 1-1.485-1.6 2.222 2.222 0 0 1 .218-1.9c.23-.438.595-.79 1.04-1 .45-.189.95-.227 1.424-.11l-.287-2.94.703.46Zm-1.127 3.16a1.776 1.776 0 0 0-1.112.85 1.814 1.814 0 0 0-.165 1.4c.232.518.634.938 1.138 1.19l1.593.93 1.732-3-1.593-.93a2.427 2.427 0 0 0-1.594-.49v.05ZM9.753 38.31l.445-.45 3.414 3.55-4.948 4.88-3.295-3.44.456-.45 2.8 2.91 1.692-1.73L7.863 41l.475-.46 2.503 2.6 1.84-1.81-2.928-3.02ZM2.4 34.38 2.639 33l.465.07-.267 1.42L4.152 34l.159.44-1.336.46 1.098.94-.317.36-1.058-1-.248 1.42-.475-.09.277-1.42-1.325.48-.149-.39 1.326-.47-1.098-.93.326-.36 1.069.94Z"/></g><defs><clipPath id="a"><path fill="#fff" d="M.422 0h68.206v55.46H.422z"/></clipPath></defs></svg>
